svg/fluentui-system-icons/ic_fluent_record_stop_24_regular.svg

<svg width="24" height="24" viewBox="0 0 24 24" fill="none" xmlns="http://www.w3.org/2000/svg">
<path d="M12 3.5C7.30558 3.5 3.5 7.30558 3.5 12C3.5 16.6944 7.30558 20.5 12 20.5C16.6944 20.5 20.5 16.6944 20.5 12C20.5 7.30558 16.6944 3.5 12 3.5ZM2 12C2 6.47715 6.47715 2 12 2C17.5228 2 22 6.47715 22 12C22 17.5228 17.5228 22 12 22C6.47715 22 2 17.5228 2 12ZM8 9.5C8 8.67157 8.67157 8 9.5 8H14.5C15.3284 8 16 8.67157 16 9.5V14.5C16 15.3284 15.3284 16 14.5 16H9.5C8.67157 16 8 15.3284 8 14.5V9.5Z" fill="#212121"/>
</svg>

<svg xmlns="http://www.w3.org/2000/svg" width="24" height="24"><path d="M12 3.5a8.5 8.5 0 1 0 0 17 8.5 8.5 0 0 0 0-17ZM2 12C2 6.477 6.477 2 12 2s10 4.477 10 10-4.477 10-10 10S2 17.523 2 12Zm6-2.5A1.5 1.5 0 0 1 9.5 8h5A1.5 1.5 0 0 1 16 9.5v5a1.5 1.5 0 0 1-1.5 1.5h-5A1.5 1.5 0 0 1 8 14.5v-5Z"/></svg>
